src/assets/icons/logo.svg

<svg width="70" height="86" viewBox="0 0 70 86" fill="none" xmlns="http://www.w3.org/2000/svg">
<g clip-path="url(#clip0_3_2)">
<path d="M5.43556 22.173C5.53699 20.6614 6.68854 18.6621 8.89021 16.1811C11.0919 13.7 14.284 10.8396 18.4785 7.59975C21.7422 5.0946 24.8329 3.19768 27.7566 1.92101C30.6802 0.644353 33.0489 0 34.8568 0C35.7339 0 36.5155 0.367341 37.1838 1.096C37.858 1.83068 38.1921 2.63763 38.1921 3.52286C38.2936 3.62524 38.4666 3.66739 38.6993 3.6433C38.932 3.61921 39.1766 3.67943 39.4391 3.83601L40.5251 4.77544C40.8353 5.08858 41.2112 5.48001 41.6527 5.94972C42.0943 6.41944 42.4165 6.86507 42.6253 7.28058H42.5477C42.7566 7.70212 42.8998 8.02731 42.9773 8.26217C43.0549 8.49702 43.0967 8.74393 43.0967 9.00889C43.0967 9.16546 43.0847 9.34612 43.0549 9.55689C43.031 9.76766 42.9893 10.0567 42.9356 10.418V10.3398L42.7804 11.2009C42.679 11.514 42.494 12.1283 42.2375 13.0436C41.9749 13.959 41.6826 14.9887 41.3425 16.1389C41.0024 17.2891 40.6563 18.3972 40.2924 19.4691C39.9284 20.541 39.642 21.3901 39.4391 22.0164L38.5083 24.919L41.1456 24.6841C41.3007 24.6841 41.5334 24.6721 41.8437 24.648C42.1539 24.6239 42.4761 24.5938 42.8162 24.5697C43.1504 24.5456 43.4785 24.5336 43.7888 24.5336H44.4093C45.3401 24.5336 45.9606 24.7263 46.2709 25.1237C46.5811 25.5152 46.7363 26.0752 46.7363 26.8099C46.7363 27.123 46.5453 27.4241 46.1515 27.7132C45.7637 28.0022 45.2566 28.2913 44.636 28.5743C44.0155 28.8634 43.3294 29.1103 42.5776 29.3211C41.8258 29.5318 41.0919 29.6884 40.364 29.7908L39.3556 29.9473C38.6277 30.0557 38.0609 30.1702 37.6492 30.3026C37.2315 30.4351 36.8854 30.67 36.599 31.0072C36.3126 31.3505 36.0561 31.8202 35.8234 32.4164C35.5907 33.0186 35.2924 33.8375 34.9284 34.8854V34.8071C34.7196 35.4334 34.463 36.1921 34.1527 37.0774C33.8425 37.9686 33.5024 38.878 33.1444 39.8174C32.7804 40.7568 32.4165 41.7143 32.0585 42.6778C31.6945 43.6474 31.3842 44.5206 31.1277 45.3034L30.0418 48.4348C28.8484 51.4639 27.6969 54.234 26.5871 56.7392C25.4714 59.2443 24.3377 61.4002 23.1742 63.2008C22.0107 65.0013 20.7518 66.4105 19.4093 67.4342C18.0609 68.4519 16.5871 68.9638 14.9821 68.9638C12.6551 68.9638 10.5549 68.2954 8.69332 66.9645C6.83174 65.6336 5.26253 64.0258 3.97971 62.1469C2.70286 60.268 1.71838 58.335 1.03222 56.3477C0.346062 54.3605 0 52.7165 0 51.4097C0 49.5308 0.52506 47.7002 1.58115 45.9237C2.63723 44.1472 4.07518 42.4249 5.90095 40.7508C7.72673 39.0767 9.8926 37.4628 12.3926 35.891C14.8926 34.3253 17.5955 32.8379 20.4893 31.4227C21.8854 30.7422 23.3592 30.0377 24.9165 29.309L28.6456 19.5173L33.2279 7.4492C33.1742 7.4492 33.1384 7.46124 33.1086 7.49135C33.0788 7.52146 33.043 7.53351 32.9893 7.53351C31.074 8.52713 28.9618 9.83391 26.6647 11.4538C24.3616 13.0737 22.2017 14.796 20.185 16.6267C18.1683 18.4574 16.4857 20.2821 15.1372 22.1127C13.7888 23.9434 13.1205 25.5332 13.1205 26.8942C13.1205 27.105 13.1444 27.2615 13.1981 27.3639L13.5084 29.1645V29.3993C13.5084 30.0256 13.1683 30.3388 12.5 30.3388C11.9272 30.3388 11.247 30.0798 10.4415 29.5559C9.63604 29.032 8.82458 28.3274 7.99523 27.4422L6.90931 26.2679C6.80788 26.1655 6.75418 26.009 6.75418 25.7982C6.75418 25.744 6.76611 25.7079 6.79594 25.6778C6.81981 25.6537 6.83771 25.6115 6.83771 25.5573C6.37231 25.5031 6.02029 25.2803 5.78759 24.8889C5.55489 24.4974 5.43556 23.5941 5.43556 22.185V22.173ZM21.8138 36.1982L22.1241 35.7285C21.9153 35.885 21.6587 36.0416 21.3484 36.1982C21.0382 36.3547 20.6742 36.5655 20.2625 36.8245C18.2458 38.0289 16.42 39.2694 14.7912 40.546C13.1623 41.8287 11.7661 43.1295 10.5967 44.4664C9.43317 45.7972 8.52625 47.0919 7.88186 48.3445C7.2315 49.5971 6.90931 50.7714 6.90931 51.8674C6.90931 52.4455 7.04057 53.1741 7.29713 54.0594C7.5537 54.9446 7.81623 55.7034 8.07279 56.3297L7.99523 56.2514C8.30549 56.8295 8.63962 57.3233 9.00358 57.7388C9.36754 58.1543 9.6778 58.3651 9.93437 58.3651C10.6563 57.4257 11.3425 56.5224 11.9928 55.6612C12.6372 54.8001 13.2876 53.8486 13.932 52.8008C14.5764 51.759 15.2506 50.5425 15.9487 49.1575C16.6468 47.7724 17.4642 46.0923 18.395 44.105C19.0692 42.6959 19.7255 41.2205 20.3759 39.6789C21.0203 38.1372 21.4737 37.0051 21.7363 36.2704L21.8138 36.1921V36.1982Z" fill="black"/>
<path d="M38.5024 24.919C40.4654 24.4914 42.3031 24.1542 44.3317 23.8892C50.6563 23.0642 62.8878 23.0221 68.0787 27.123C70.3639 28.9236 69.994 32.9824 69.9463 34.1748C69.8986 35.3671 69.642 36.71 69.3616 37.9325C69.0752 39.161 68.6515 40.4256 68.0787 41.7324H68.1563C67.2733 43.8762 65.9308 45.9538 64.1169 47.9591C62.3031 49.9705 60.3103 51.8132 58.1384 53.4813C55.9666 55.1554 53.7112 56.6308 51.3842 57.9074C49.0573 59.1901 46.9093 60.1958 44.9403 60.9245H45.0179C43.6217 61.6049 42.8699 62.0205 42.7685 62.177L40.4415 69.6985L40.3639 69.6202L40.1313 71.3425C39.9224 72.2337 39.7017 73.2756 39.469 74.4799C39.2363 75.6843 39.0394 76.8827 38.8842 78.0871C38.7291 79.2855 38.5978 80.3996 38.4964 81.4173C38.395 82.435 38.3413 83.1516 38.3413 83.5731L38.4188 85.2954C38.3174 85.7652 38.0787 86 37.7208 86L36.4797 85.9217C35.9606 85.8675 35.5191 85.8133 35.1611 85.7652C34.7971 85.711 34.5644 85.5845 34.463 85.3737C34.3079 85.5303 34.1527 85.6086 33.9976 85.6086C33.5799 85.6086 33.0668 85.4279 32.4463 85.0606C31.8258 84.6932 31.2172 84.2115 30.6205 83.6093C30.0239 83.0071 29.4928 82.3266 29.0274 81.5739C28.562 80.8151 28.2518 80.0443 28.0966 79.2614C27.8878 78.057 27.8102 76.6238 27.8639 74.9497C27.9176 73.0166 28.2518 70.5777 28.8723 67.6209C29.4928 64.6701 30.2804 61.4845 31.241 58.064C32.1957 54.6435 33.2995 51.0905 34.5406 47.4111C35.7816 43.7257 37.0525 40.1606 38.3472 36.7161C39.1766 34.5241 39.8091 32.874 40.2506 31.778C40.6921 30.682 41.1157 29.8992 41.5334 29.4295L38.5083 24.913L38.5024 24.919ZM51.6229 28.2552C50.5847 28.2552 49.5107 28.2973 48.4009 28.3756C47.2852 28.4539 46.1336 28.5984 44.9463 28.8092L45.179 29.2006C45.179 29.1464 45.2566 29.1223 45.4117 29.1223C45.6205 29.1223 45.9009 29.2428 46.2649 29.4776C46.6289 29.7125 47.0167 29.9594 47.4284 30.2244L48.2816 31.0855C48.9021 31.766 49.457 32.5248 49.9523 33.3558C50.4415 34.1928 50.6921 35.054 50.6921 35.9392C50.6921 36.9871 50.0418 39.3115 48.753 42.9127C48.1324 44.5326 47.6253 45.8875 47.2375 46.9896C46.8496 48.0856 46.5394 48.9588 46.3067 49.6152C46.074 50.2716 45.9188 50.7533 45.8413 51.0665C45.7637 51.3796 45.7219 51.5904 45.7219 51.6927V51.771L45.7995 51.6927L45.8771 51.6145C48.0489 50.0487 50.1611 48.2723 52.2017 46.285C54.2482 44.2977 56.0561 42.3526 57.6372 40.4497C59.2124 38.5407 60.4833 36.7943 61.4439 35.1985C62.3986 33.6087 62.8818 32.4465 62.8818 31.7118C62.8818 31.0855 62.5477 30.5616 61.8735 30.1461C61.1993 29.7306 60.3222 29.3753 59.2363 29.0862C58.1503 28.7971 56.9332 28.5924 55.5907 28.4599C54.2422 28.3274 52.9236 28.2612 51.6289 28.2612L51.6229 28.2552Z" fill="black"/>
</g>
<defs>
<clipPath id="clip0_3_2">
<rect width="70" height="86" fill="white"/>
</clipPath>
</defs>
</svg>

<?xml version="1.0" encoding="UTF-8"?>
<svg id="Calque_1" xmlns="http://www.w3.org/2000/svg" version="1.1" xmlns:xlink="http://www.w3.org/1999/xlink" viewBox="0 0 70 86">
  <!-- Generator: Adobe Illustrator 29.5.1, SVG Export Plug-In . SVG Version: 2.1.0 Build 141)  -->
  <defs>
    <style>
      .st0 {
        fill: none;
      }

      .st1 {
        clip-path: url(#clippath);
      }
    </style>
    <clipPath id="clippath">
      <rect class="st0" width="70" height="86"/>
    </clipPath>
  </defs>
  <g class="st1">
    <g>
      <path d="M5.44,22.17c.1-1.51,1.25-3.51,3.45-5.99,2.2-2.48,5.39-5.34,9.59-8.58,3.26-2.51,6.35-4.4,9.28-5.68,2.92-1.28,5.29-1.92,7.1-1.92.88,0,1.66.37,2.33,1.1.67.73,1.01,1.54,1.01,2.43.1.1.27.14.51.12s.48.04.74.19l1.09.94c.31.31.69.7,1.13,1.17.44.47.76.92.97,1.33h-.08c.21.42.35.75.43.98.08.23.12.48.12.75,0,.16-.01.34-.04.55-.02.21-.07.5-.12.86v-.08l-.16.86c-.1.31-.29.93-.54,1.84-.26.92-.55,1.95-.9,3.1-.34,1.15-.69,2.26-1.05,3.33-.36,1.07-.65,1.92-.85,2.55l-.93,2.9,2.64-.23c.16,0,.39-.01.7-.04.31-.02.63-.05.97-.08.33-.02.66-.04.97-.04h.62c.93,0,1.55.19,1.86.59.31.39.47.95.47,1.69,0,.31-.19.61-.58.9-.39.29-.89.58-1.52.86-.62.29-1.31.54-2.06.75-.75.21-1.49.37-2.21.47l-1.01.16c-.73.11-1.29.22-1.71.36-.42.13-.76.37-1.05.7-.29.34-.54.81-.78,1.41-.23.6-.53,1.42-.9,2.47v-.08c-.21.63-.47,1.39-.78,2.27-.31.89-.65,1.8-1.01,2.74-.36.94-.73,1.9-1.09,2.86-.36.97-.67,1.84-.93,2.63l-1.09,3.13c-1.19,3.03-2.34,5.8-3.45,8.3-1.12,2.51-2.25,4.66-3.41,6.46-1.16,1.8-2.42,3.21-3.76,4.23-1.35,1.02-2.82,1.53-4.43,1.53-2.33,0-4.43-.67-6.29-2-1.86-1.33-3.43-2.94-4.71-4.82-1.28-1.88-2.26-3.81-2.95-5.8-.69-1.99-1.03-3.63-1.03-4.94,0-1.88.53-3.71,1.58-5.49,1.06-1.78,2.49-3.5,4.32-5.17,1.83-1.67,3.99-3.29,6.49-4.86,2.5-1.57,5.2-3.05,8.1-4.47,1.4-.68,2.87-1.39,4.43-2.11l3.73-9.79,4.58-12.07c-.05,0-.09.01-.12.04-.03.03-.07.04-.12.04-1.92.99-4.03,2.3-6.32,3.92-2.3,1.62-4.46,3.34-6.48,5.17-2.02,1.83-3.7,3.66-5.05,5.49-1.35,1.83-2.02,3.42-2.02,4.78,0,.21.02.37.08.47l.31,1.8v.23c0,.63-.34.94-1.01.94-.57,0-1.25-.26-2.06-.78-.81-.52-1.62-1.23-2.45-2.11l-1.09-1.17c-.1-.1-.16-.26-.16-.47,0-.05.01-.09.04-.12.02-.02.04-.07.04-.12-.47-.05-.82-.28-1.05-.67-.23-.39-.35-1.29-.35-2.7h0ZM21.81,36.2l.31-.47c-.21.16-.47.31-.78.47-.31.16-.67.37-1.09.63-2.02,1.2-3.84,2.44-5.47,3.72-1.63,1.28-3.03,2.58-4.19,3.92-1.16,1.33-2.07,2.63-2.71,3.88-.65,1.25-.97,2.43-.97,3.52,0,.58.13,1.31.39,2.19.26.89.52,1.64.78,2.27l-.08-.08c.31.58.64,1.07,1.01,1.49s.67.63.93.63c.72-.94,1.41-1.84,2.06-2.7.64-.86,1.29-1.81,1.94-2.86.64-1.04,1.32-2.26,2.02-3.64.7-1.39,1.52-3.07,2.45-5.05.67-1.41,1.33-2.88,1.98-4.43.64-1.54,1.1-2.67,1.36-3.41l.08-.08h0Z"/>
      <path d="M38.5,24.92c1.96-.43,3.8-.76,5.83-1.03,6.32-.83,18.56-.87,23.75,3.23,2.29,1.8,1.92,5.86,1.87,7.05-.05,1.19-.3,2.54-.58,3.76-.29,1.23-.71,2.49-1.28,3.8h.08c-.88,2.14-2.23,4.22-4.04,6.23-1.81,2.01-3.81,3.85-5.98,5.52-2.17,1.67-4.43,3.15-6.75,4.43-2.33,1.28-4.47,2.29-6.44,3.02h.08c-1.4.68-2.15,1.1-2.25,1.25l-2.33,7.52-.08-.08-.23,1.72c-.21.89-.43,1.93-.66,3.14-.23,1.2-.43,2.4-.58,3.61-.16,1.2-.29,2.31-.39,3.33-.1,1.02-.16,1.73-.16,2.16l.08,1.72c-.1.47-.34.7-.7.7l-1.24-.08c-.52-.05-.96-.11-1.32-.16-.36-.05-.6-.18-.7-.39-.16.16-.31.23-.47.23-.42,0-.93-.18-1.55-.55-.62-.37-1.23-.85-1.83-1.45-.6-.6-1.13-1.28-1.59-2.04-.47-.76-.78-1.53-.93-2.31-.21-1.2-.29-2.64-.23-4.31.05-1.93.39-4.37,1.01-7.33.62-2.95,1.41-6.14,2.37-9.56.95-3.42,2.06-6.97,3.3-10.65,1.24-3.69,2.51-7.25,3.81-10.69.83-2.19,1.46-3.84,1.9-4.94.44-1.1.87-1.88,1.28-2.35l-3.03-4.52h0ZM51.62,28.26c-1.04,0-2.11.04-3.22.12-1.12.08-2.27.22-3.45.43l.23.39c0-.05.08-.08.23-.08.21,0,.49.12.85.36.36.23.75.48,1.16.75l.85.86c.62.68,1.18,1.44,1.67,2.27.49.84.74,1.7.74,2.58,0,1.05-.65,3.37-1.94,6.97-.62,1.62-1.13,2.97-1.52,4.08-.39,1.1-.7,1.97-.93,2.63-.23.66-.39,1.14-.47,1.45-.08.31-.12.52-.12.63v.08l.08-.08.08-.08c2.17-1.57,4.28-3.34,6.32-5.33,2.05-1.99,3.85-3.93,5.44-5.84,1.58-1.91,2.85-3.66,3.81-5.25.95-1.59,1.44-2.75,1.44-3.49,0-.63-.33-1.15-1.01-1.57-.67-.42-1.55-.77-2.64-1.06-1.09-.29-2.3-.49-3.65-.63-1.35-.13-2.67-.2-3.96-.2h0Z"/>
    </g>
  </g>
</svg>
